X:8
T:Marine Corps Hymn
M:4/4
K:HP
|:{g}A1{d}c1| \
{gef}e2{A}e2{gef}e2{A}e2 |{gef}e3a1{ef}e2c1d1|{gef}e2{A}e2{gde}d1B3 |{G}A4{GAG}A2:|!
a1g1 |\
{fg}f2d2{g}f2d2|{gef}e3c1{gef}e2a1g1|{fg}f2d2{g}f1a3 |{ef}e4{A}e2 |!
{g}A1{d}c1| {gef}e2{A}e2{gef}e2{A}e2 |{gef}e3a1{ef}e2c1d1|{gef}e2{A}e2{gde}d1B3 |{G}A4{GAG}A2 |]!

